X:112
T:Haul 'Er Away (a)
M:C|
L:1/8
Q:1/4=3D100
K:C
GG GG|\
G2 c3G GG|G4 GG GG |
G2 c3G GG|G6 EF    |
G2E2 D2C2|CC CC3 EF|
G2E2 D2C2|CC CC   ||
